X: 20862
P: A Bumper for Luck.
M: 2/4
L: 1/16
K: G
(dcBA) !segno!|:\
[| d2(d2 |\
^c2)c2=c2(c2 | B4) d2b2 | c2a2B2g2 | B2A2 d2(de) |\
^c2c2 =c2(cd) | B4 GABc | (defg) dcBA | GA_Bc d2=f2 |]
K: Gm
"Minore."[|\
g2g2g2g2 | f2e2 d4 | e2e2e2e2 | d2c2 B4 |\
c2c2B2A2 | B2d2 g4 | A2z2 f2z2 | (g^fed) ("^D.C. al"dc=BA) !segno! :|
K: G
"^Coda."[|\


